img/youtube.svg

<svg width="20" height="20" viewBox="0 0 20 20" fill="none" xmlns="http://www.w3.org/2000/svg">
<path fill-rule="evenodd" clip-rule="evenodd" d="M16.8475 4.24895C17.5975 4.4502 18.1875 5.04145 18.39 5.79145C18.75 7.1602 18.75 10.0002 18.75 10.0002C18.75 10.0002 18.75 12.8402 18.39 14.2089C18.2899 14.5783 18.0948 14.915 17.8242 15.1856C17.5536 15.4563 17.2169 15.6513 16.8475 15.7514C15.4775 16.1127 10 16.1127 10 16.1127C10 16.1127 4.5225 16.1127 3.1525 15.7514C2.78313 15.6513 2.44641 15.4563 2.1758 15.1856C1.90519 14.915 1.71013 14.5783 1.61 14.2089C1.25 12.8539 1.25 10.0002 1.25 10.0002C1.25 10.0002 1.25 7.1602 1.61 5.79145C1.8125 5.04145 2.40375 4.4502 3.1525 4.24895C4.5225 3.8877 10 3.8877 10 3.8877C10 3.8877 15.4775 3.8877 16.8475 4.24895ZM12.7975 10.0139L8.24125 12.6389V7.3752L12.7963 10.0127L12.7975 10.0139Z" fill="#1B1A24"/>
</svg>

<svg width="20" height="20" fill="none" xmlns="http://www.w3.org/2000/svg"><path fill-rule="evenodd" clip-rule="evenodd" d="M16.848 4.249c.75.201 1.34.792 1.542 1.542.36 1.37.36 4.21.36 4.21s0 2.84-.36 4.208a2.192 2.192 0 0 1-1.543 1.542c-1.37.362-6.847.362-6.847.362s-5.478 0-6.848-.362A2.191 2.191 0 0 1 1.61 14.21C1.25 12.854 1.25 10 1.25 10s0-2.84.36-4.209A2.194 2.194 0 0 1 3.152 4.25C4.522 3.888 10 3.888 10 3.888s5.477 0 6.848.36Zm-4.05 5.765L8.24 12.639V7.375l4.555 2.638h.002Z" fill="#1B1A24"/></svg>
